X:96
T:Rose In the Heather
M:6/8
L:1/8
R:jig
K:D
FAF EFE | DFA BAF | ABd ede | fdB AFE |
FAF EFE | DFA BAF | AdB AFE | FDD D3 ::
fdB ABd | eff afd | gag fed | Bee efg |
fdB ABd | eff afa | bag fge | edc d3 :|
